media/img/logo.svg

<svg fill="none" height="40" viewBox="0 0 52 40" width="52" xmlns="http://www.w3.org/2000/svg" xmlns:xlink="http://www.w3.org/1999/xlink"><mask id="a" height="40" maskUnits="userSpaceOnUse" width="52" x="0" y="0"><path clip-rule="evenodd" d="m.261719 39.5261h50.927781v-39.5261h-50.927781z" fill="#fff" fill-rule="evenodd"/></mask><g clip-rule="evenodd" fill-rule="evenodd"><path d="m7.78442 24.1818c-.59968.7119-1.46638 1.1205-2.37839 1.1205-1.73729 0-3.15082-1.4617-3.15082-3.2585 0-1.7965 1.41353-3.2582 3.15082-3.2582.84176 0 1.63319.3388 2.22807.9542l.10068.1044 1.41033-1.4585-.10067-.1041c-.9715-1.005-2.26377-1.5585-3.63841-1.5585-2.83714 0-5.145288 2.3869-5.145288 5.3207 0 2.9339 2.308148 5.321 5.145288 5.321 1.48904 0 2.90441-.6665 3.88254-1.829l.09358-.1109-1.50437-1.3543z" fill="#fff"/><g fill="#fff" mask="url(#a)"><path d="m42.0674 23.564h9.1214v-2.2803h-9.1214z"/><path d="m42.0674 19.0035h9.1214v-2.2804h-9.1214z"/><path d="m42.0674 28.1251h9.1214v-2.2804h-9.1214z"/><path d="m34.3726 8.81274.0935-.11096-1.5043-1.35428-.0934.1112c-.5994.71192-1.4661 1.12052-2.3783 1.12052-1.7375 0-3.1507-1.46169-3.1507-3.25817 0-1.79671 1.4132-3.2584 3.1507-3.2584.8418 0 1.6332.33904 2.2285.95443l.1004.1041 1.4103-1.45862-.1006-.1041c-.972-1.005061-2.2644-1.55846-3.6386-1.55846-2.8371 0-5.1454 2.38702-5.1454 5.32105 0 2.9338 2.3083 5.32055 5.1454 5.32055 1.4892 0 2.9046-.66646 3.8825-1.82886z"/><path d="m30.665 6.08113h6.8411v-2.28035h-6.8411z"/><path d="m2.38168 6.34848h4.88124v4.29312h2.1202v-10.6416h-2.1202v4.29292h-4.88124v-4.29292h-2.119961v10.6416h2.119961z"/><path d="m49.0687 0v4.29315h-4.8812v-4.29315h-2.1201v10.6416h2.1201v-4.29312h4.8812v4.29312h2.1201v-10.6416z"/><path d="m16.9844 10.6416h2.2803v-10.6416h-2.2803z"/><path d="m35.064 24.1929c-.1806-.561-.4243-1.3176-.9591-1.9302.5664-.6123.8766-1.403.8766-2.2416 0-1.6938-1.2825-3.1073-2.9446-3.2771v-.0209h-2.1307v2.0625h1.7967c.6776 0 1.2284.5541 1.2284 1.2355 0 .6642-.5386 1.2171-1.1971 1.2323h-1.828v2.0624l1.7967.0033c.834 0 1.0231.3055 1.4104 1.5095.3056.9486.8166 2.5362 2.6855 2.5362h.9485v-2.0627h-.9485c-.275 0-.3778 0-.7348-1.1092z"/></g><g fill="#ffda06"><path d="m21.5895 24.7068c1.0194-.9223 1.4044-2.4217.8499-3.7632-.705-1.7057-2.6663-2.52-4.3721-1.8149-1.7059.7051-2.5198 2.6665-1.8148 4.3722.5318 1.2865 1.7779 2.0658 3.0901 2.0688-1.0655.6385-2.0216 1.1098-2.6814 1.4118-1.0305-.5799-1.8813-1.4959-2.3671-2.671-1.1513-2.7855.1783-5.9885 2.9638-7.1398 2.7855-1.1514 5.9885.178 7.1399 2.9635 1.1514 2.7856-.1782 5.9887-2.9636 7.1401-.7211.2981-1.4702.4298-2.2044.4132.8758-1.0129 1.7212-2.1086 2.3597-2.9807z"/><path d="m21.7747 19.8844c.4808-.2448.9278-.4574 1.3293-.6328 1.1443-.4997 1.9196-.6966 2.0569-.4729.1374.2238-.389.826-1.3524 1.6204-.6988.5762-1.6275 1.2535-2.6997 1.9607-.4251.2804-.8727.5655-1.3375.8509-.4648.2853-.9215.5555-1.3639.8078-1.1158.6361-2.14 1.1579-2.97 1.5204-1.1444.4997-1.9196.6966-2.057.4729-.1373-.2237.389-.826 1.3524-1.6204.4136-.341.9078-.7175 1.4645-1.1146-.0558-.1663-.0986-.3372-.1278-.5111-.0771-.4599-.0573-.9309.0582-1.3828.0358-.1397.0804-.2767.1336-.41-1.0686.7098-2.017 1.402-2.7634 2.0158-.5306.4363-1.0379.8969-1.4136 1.3394-.1799.212-.4189.5226-.5879.8956-.1506.3325-.4322 1.1437.0433 1.9182.4756.7746 1.3264.8905 1.6911.9066.409.018.7942-.0546 1.0646-.1191.5647-.1348 1.205-.3788 1.8342-.6546 1.29-.5654 2.9227-1.438 4.6159-2.4776 1.6931-1.0395 3.21-2.1007 4.2979-2.9953.5306-.4364 1.038-.897 1.4136-1.3395.1799-.2119.419-.5226.5879-.8956.1506-.3325.4323-1.1437-.0433-1.9182-.4755-.7746-1.3264-.8904-1.691-.9066-.4091-.018-.7943.0546-1.0647.1191-.5646.1348-1.2049.3788-1.8341.6546-.7966.3491-1.7237.8153-2.7151 1.3656.275.027.5462.088.8075.1821.4388.1581.8397.4061 1.177.7281.0318.0304.063.0614.0935.0929zm1.5756-1.6128c.0002-.0001-.0023.0033-.0078.0102.0048-.0067.0076-.0102.0078-.0102zm-9.6029 5.896c.0001-.0001.0044-.0011.0127-.0023-.0087.0018-.0128.0024-.0127.0023zm1.4437 2.3513c-.0002.0001.0022-.0033.0078-.0102-.0049.0067-.0077.0102-.0078.0102zm9.5902-5.8937c.0082-.0012.0125-.0021.0127-.0023.0001-.0001-.0021.0002-.0066.0011-.0017.0003-.0037.0007-.0061.0012z"/></g></g></svg>

<svg width="52" height="40" viewBox="0 0 52 40" fill="none" xmlns="http://www.w3.org/2000/svg">
<path fill-rule="evenodd" clip-rule="evenodd" d="M7.78442 24.1818C7.18474 24.8937 6.31804 25.3023 5.40603 25.3023C3.66874 25.3023 2.25521 23.8406 2.25521 22.0438C2.25521 20.2473 3.66874 18.7856 5.40603 18.7856C6.24779 18.7856 7.03922 19.1244 7.6341 19.7398L7.73478 19.8442L9.14511 18.3857L9.04444 18.2816C8.07294 17.2766 6.78067 16.7231 5.40603 16.7231C2.56889 16.7231 0.260742 19.11 0.260742 22.0438C0.260742 24.9777 2.56889 27.3648 5.40603 27.3648C6.89507 27.3648 8.31044 26.6983 9.28857 25.5358L9.38215 25.4249L7.87778 24.0706L7.78442 24.1818Z" fill="white"/>
<mask id="mask0_19_1524" style="mask-type:alpha" maskUnits="userSpaceOnUse" x="0" y="0" width="52" height="40">
<path fill-rule="evenodd" clip-rule="evenodd" d="M0.261719 39.5261H51.1895V0H0.261719V39.5261Z" fill="white"/>
</mask>
<g mask="url(#mask0_19_1524)">
<path fill-rule="evenodd" clip-rule="evenodd" d="M42.0674 23.564H51.1888V21.2837H42.0674V23.564Z" fill="white"/>
<path fill-rule="evenodd" clip-rule="evenodd" d="M42.0674 19.0035H51.1888V16.7231H42.0674V19.0035Z" fill="white"/>
<path fill-rule="evenodd" clip-rule="evenodd" d="M42.0674 28.1251H51.1888V25.8447H42.0674V28.1251Z" fill="white"/>
<path fill-rule="evenodd" clip-rule="evenodd" d="M34.3726 8.81274L34.4661 8.70178L32.9618 7.3475L32.8684 7.4587C32.269 8.17062 31.4023 8.57922 30.4901 8.57922C28.7526 8.57922 27.3394 7.11753 27.3394 5.32105C27.3394 3.52434 28.7526 2.06265 30.4901 2.06265C31.3319 2.06265 32.1233 2.40169 32.7186 3.01708L32.819 3.12118L34.2293 1.66256L34.1287 1.55846C33.1567 0.553399 31.8643 0 30.4901 0C27.653 0 25.3447 2.38702 25.3447 5.32105C25.3447 8.25485 27.653 10.6416 30.4901 10.6416C31.9793 10.6416 33.3947 9.97514 34.3726 8.81274Z" fill="white"/>
<path fill-rule="evenodd" clip-rule="evenodd" d="M30.665 6.08113H37.5061V3.80078H30.665V6.08113Z" fill="white"/>
<path fill-rule="evenodd" clip-rule="evenodd" d="M2.38168 6.34848H7.26292V10.6416H9.38312V0H7.26292V4.29292H2.38168V0H0.261719V10.6416H2.38168V6.34848Z" fill="white"/>
<path fill-rule="evenodd" clip-rule="evenodd" d="M49.0687 0V4.29315H44.1875V0H42.0674V10.6416H44.1875V6.34848H49.0687V10.6416H51.1888V0H49.0687Z" fill="white"/>
<path fill-rule="evenodd" clip-rule="evenodd" d="M16.9844 10.6416H19.2647V0H16.9844V10.6416Z" fill="white"/>
<path fill-rule="evenodd" clip-rule="evenodd" d="M35.064 24.1929C34.8834 23.6319 34.6397 22.8753 34.1049 22.2627C34.6713 21.6504 34.9815 20.8597 34.9815 20.0211C34.9815 18.3273 33.699 16.9138 32.0369 16.744V16.7231H29.9062V18.7856H31.7029C32.3805 18.7856 32.9313 19.3397 32.9313 20.0211C32.9313 20.6853 32.3927 21.2382 31.7342 21.2534H29.9062V23.3158L31.7029 23.3191C32.5369 23.3191 32.726 23.6246 33.1133 24.8286C33.4189 25.7772 33.9299 27.3648 35.7988 27.3648H36.7473V25.3021H35.7988C35.5238 25.3021 35.421 25.3021 35.064 24.1929Z" fill="white"/>
</g>
<path fill-rule="evenodd" clip-rule="evenodd" d="M21.5895 24.7068C22.6089 23.7845 22.9939 22.2851 22.4394 20.9436C21.7344 19.2379 19.7731 18.4236 18.0673 19.1287C16.3614 19.8338 15.5475 21.7952 16.2525 23.5009C16.7843 24.7874 18.0304 25.5667 19.3426 25.5697C18.2771 26.2082 17.321 26.6795 16.6612 26.9815C15.6307 26.4016 14.7799 25.4856 14.2941 24.3105C13.1428 21.525 14.4724 18.322 17.2579 17.1707C20.0434 16.0193 23.2464 17.3487 24.3978 20.1342C25.5492 22.9198 24.2196 26.1229 21.4342 27.2743C20.7131 27.5724 19.964 27.7041 19.2298 27.6875C20.1056 26.6746 20.951 25.5789 21.5895 24.7068Z" fill="#FFDA06"/>
<path fill-rule="evenodd" clip-rule="evenodd" d="M21.7747 19.8844C22.2555 19.6396 22.7025 19.427 23.104 19.2516C24.2483 18.7519 25.0236 18.555 25.1609 18.7787C25.2983 19.0025 24.7719 19.6047 23.8085 20.3991C23.1097 20.9753 22.181 21.6526 21.1088 22.3598C20.6837 22.6402 20.2361 22.9253 19.7713 23.2107C19.3065 23.496 18.8498 23.7662 18.4074 24.0185C17.2916 24.6546 16.2674 25.1764 15.4374 25.5389C14.293 26.0386 13.5178 26.2355 13.3804 26.0118C13.2431 25.7881 13.7694 25.1858 14.7328 24.3914C15.1464 24.0504 15.6406 23.6739 16.1973 23.2768C16.1415 23.1105 16.0987 22.9396 16.0695 22.7657C15.9924 22.3058 16.0122 21.8348 16.1277 21.3829C16.1635 21.2432 16.2081 21.1062 16.2613 20.9729C15.1927 21.6827 14.2443 22.3749 13.4979 22.9887C12.9673 23.425 12.46 23.8856 12.0843 24.3281C11.9044 24.5401 11.6654 24.8507 11.4964 25.2237C11.3458 25.5562 11.0642 26.3674 11.5397 27.1419C12.0153 27.9165 12.8661 28.0324 13.2308 28.0485C13.6398 28.0665 14.025 27.9939 14.2954 27.9294C14.8601 27.7946 15.5004 27.5506 16.1296 27.2748C17.4196 26.7094 19.0523 25.8368 20.7455 24.7972C22.4386 23.7577 23.9555 22.6965 25.0434 21.8019C25.574 21.3655 26.0814 20.9049 26.457 20.4624C26.6369 20.2505 26.876 19.9398 27.0449 19.5668C27.1955 19.2343 27.4772 18.4231 27.0016 17.6486C26.5261 16.874 25.6752 16.7582 25.3106 16.742C24.9015 16.724 24.5163 16.7966 24.2459 16.8611C23.6813 16.9959 23.041 17.2399 22.4118 17.5157C21.6152 17.8648 20.6881 18.331 19.6967 18.8813C19.9717 18.9083 20.2429 18.9693 20.5042 19.0634C20.943 19.2215 21.3439 19.4695 21.6812 19.7915C21.713 19.8219 21.7442 19.8529 21.7747 19.8844ZM23.3503 18.2716C23.3505 18.2715 23.348 18.2749 23.3425 18.2818C23.3473 18.2751 23.3501 18.2716 23.3503 18.2716ZM13.7474 24.1676C13.7475 24.1675 13.7518 24.1665 13.7601 24.1653C13.7514 24.1671 13.7473 24.1677 13.7474 24.1676ZM15.1911 26.5189C15.1909 26.519 15.1933 26.5156 15.1989 26.5087C15.194 26.5154 15.1912 26.5189 15.1911 26.5189ZM24.7813 20.6252C24.7895 20.624 24.7938 20.6231 24.794 20.6229C24.7941 20.6228 24.7919 20.6231 24.7874 20.624C24.7857 20.6243 24.7837 20.6247 24.7813 20.6252Z" fill="#FFDA06"/>
</svg>
